X:1
T:Title
%%score { 1 | 2 }
L:1/8
Q:1/4=100
M:6/8
K:D
V:1 treble nm="Grand Piano"
V:2 bass 
V:1
 A2 A F2 G | B3 A3 | [DA]2 [DA] [CG]2 [CE] | [DF]6 | [Fd]2 [Fd] [Gc]2 [Fd] | [Ge]3 [Fd]3 | %6
w: E.~Barker * * *||||||
 c2 A A2 ^G | [CA]6 | [CA]2 [Ge] [Ge]2 [Fd] | [Gd]3 [Gc]3 | [EA]2 [EG] [EG]2 [DF] | [CE]6 | %12
w: ||||||
 [DG]2 [DG] [Dd]2 [D=FB] | [D=FB]3 [D^FA]3 | [CA]2 [CA] [CB]2 [EGc] | [Fd]6 |] %16
w: ||||
V:2
 [D,F,D]2 [D,F,D] [D,A,D]2 [D,B,D] | [D,G,D]3 [D,F,D]3 | [A,,F,]2 [A,,F,] [A,,E,]2 [A,,A,] | %3
 [D,A,]6 | [D,A,]2 [D,A,] [E,A,]2 [D,A,] | [C,A,]3 [D,A,]3 | [E,A,E]2 [E,CE] [E,B,D]2 [E,B,D] | %7
 [A,,A,]6 | [C,A,]2 [C,A,] [C,A,]2 [D,A,] | [E,A,]3 [E,A,]3 | [C,A,]2 [C,A,] [C,A,]2 [D,A,] | %11
 [A,,A,]6 | [B,,B,]2 [B,,B,] [B,,G,]2 ^G,, | ^G,,3 A,,3 | [A,,G,]2 [A,,G,] [A,,G,]2 [A,,A,] | %15
 [D,A,]6 |] %16

